!!!OTL: Yiqu meijian lan de xin
!!!ARE: Asia, China,ˇGansu Weixian
!! I, 130 1)
!!!SCT: C1414
!!!YEM: Copyright 1995, estate of Helmut Schaffrath.
**kern
*ICvox
*Ivox
*M2/4
*k[b-e-a-d-]
*A-:
{4f
8f
8f
=1
4b-
4ee-
=2
[2ff
=3
8ff]
8cc
4ee-
=4
[2ff
=5
4ff]
8cc
8b-
=6
4b-
4r}
=7
{8b-
8cc
4ee-
=8
4ee-
8ff
8cc
=9
8cc
8b-
4ee-
=10
4cc
16b-
16a-
[8f
=11
4f]
4f}
=12
{4cc
4ee-
=13
16cc
16b-
4a-
8b-}
=14
{4f
8f
8f
=15
4b-
4ee-
=16
[2ff
=17
8ff]
8cc
4ee-
=18
[2ff
=19
4ff]
8cc
8b-
=20
4b-
4r}
=21
{8b-
8cc
4ee-
=22
4ee-
8ff
8cc
=23
8cc
8b-
4ee-
=24
4cc
16b-
16a-
[8f
=25
4f]
4f}
==
!!!AGN: Shange. NannÅ siqing
!!!ONB: ESAC (Essen Associative Code) Database: HUANG
!!!AMT: simple duple
!!!AIN: vox
!!!EED: Helmut Schaffrath
!!!EEV: 1.0
*-
!!!ONB: Tied note syntax fixed by Craig Sapp, 2004/05/03/
